X: 85
T:Shoemaker's Daughter [DeZarn], The
M:C|
L:1/8
C:Ed Reavy
S:After Joe DeZarn
R:Reel
K:G
G2DG BcdB|G=FDE FDCD|G2DG Bcde|=fdBd cABc|!
dg~g2 dc~c2|Bcde fgaf|g2dc BG~G2|1FGAF GDED:|2FGAF G3g|!
|:g2dg bgdg|g2dg fgaf|g2dg bgdg|fdcA BABd|!
g2dc BG~G2|FGAB cABc|dg~g2 defd|1cAFD GABd:|2cAFD GDED|]!
